X:1
T:Title
%%score 1 2 3
L:1/8
M:2/2
K:C
V:1 treble nm="Part_1"
V:2 treble-8 nm="Part_2"
V:3 treble-8 nm="Part_3"
V:1
 G8- | G4 A4 | B8 | c4 d4- | d2 c2 A4- | A4 B4- | B2 G2 G4- | G4 c4 | B6 AG | A6 G2 | B8 | z4 G4 | %12
 A4 c4 | _B4 G4- | G2 E2 F4 | G8 | z8 | E8 | E4 E4 | F8 | G6 A2 | B4 c4 | d4 e4- | e2 c2 c4- | %24
 c4 B4 | c6 _B2 | G4 A4- | A2 _B2 A2 GF | E8 | z8 | A8 | A4 B4 | c8 | d8 | B4 G4 | A4 c4- | %36
 c4 B4- | B2 A2 A4- | A4 G4 | A4 _B4- | B2 G2 G4- | G2 E2 F4 | G8 | z4 E4 | E4 E4 | F8 | E4 C4 | %47
 D8 | C4 z4 | G6 A2 | B6 c2 | d4 e4- | e2 c2 c4- | c4 B4 | c8 |] %55
V:2
[K:F] g8- | g4 f4 | d8 | e4 d4 | g4 f4- | f4 e4 | g8 | e4 c4 | d8 | c6 B2 | G8 | c8- | c8 | G4 B4 | %14
 A8 | G8- | G8 | z8 | c8 | d4 d4 | e8- | e8 | f4 g4- | g2 e2 f4 | d8 | c6 d2 | e4 f4 | d8 | g8- | %29
 g8 | f8 | d8 | c4 A4 | G8 | z4 c4- | c8 | e8 | d4 c4 | B8 | A4 G4 | B4 c4 | A8 | G8- | G8 | %44
 z4 A4 | A4 A4 | G4 c4- | c4 =B4 | c6 d2 | e6 f2 | g8 | f4 e4 | c4 e4 | d8 | c8 |] %55
V:3
[K:F] G8 | E4 F4 | G8 | c4 B4 | G4 d4- | d4 z4 | e6 c2 | c4 A4 | G8 | z4 e4 | d6 c2 | e8 | e6 f2 | %13
 (3:2:2g4 f2 d4- | d4 c4 | d8 | B4 G4 | A8 | z8 | z4 a4 | g4 e4 | g6 f2 | d4 c4- | c4 F4 | G8 | %25
 g6 f2 | e4 d4 | f6 e2 | c8- | c8 | F8 | f8 | e4 f4 | g8 | e8 | z4 A4 | c4 G4- | G4 A4 | G8 | %39
 e4 (3:2:2g4 f2 | d4 e4 | c2 c4 B2 | d8 | B8 | c8 | c6 d2 | e4 A4 | G8 | g4 z4 | c6 AB | G6 A2 | %51
 B4 c4 | A4 c4 | G8 | g8 |] %55

